X:1
T:Sweet Suffolk Owl - Vautor
T:#
%%score { 1 | 2 } 3 4 5
L:1/8
Q:1/4=120
M:2/2
K:Ab
V:1 treble nm="Soprano I" snm="S"
V:2 treble 
V:3 treble nm="Alto" snm="A"
V:4 treble-8 nm="Tenor" snm="T"
V:5 bass nm="Bass" snm="B"
V:1
"^Sweet Suffolk Owl" z8 |!mf! A8 | z8 | B8 | z4 z2"^Thomas Vautor\n(1579-1620)" B2 | B2 B2 B4 | %6
w: |Sweet,||sweet,|sweet|Suf- folk owl,|
[M:2/2] z8 | e8 | z4 z2 e2 | e2 e2 e4 | z2 B2 B2 c2 | d6 d2 | dddd dd d2 | z2!f! c2 c2 c2 | %14
w: |sweet,|sweet|Suf- folk owl,|so trim- ly|dight With|fea- thers like a la- dy bright;|Sweet Suf- folk|
 B2 F2 F3 F | F3 F FFFF | FF F2 z4 | z2!mf! (BA) G2 F2 | G2"^dim." E2 G2 F2 | E4 z4 | z8 | %21
w: owl, so trim- ly|dight With fea- thers like a|la- dy bright,|Thou * sing'st a-|lone, sit- ting by|night,||
 z4!mf! B4 | c3 c cccc | cccc c2 c2 | d4 z2 A2 | d4 z4 | z2 B2 e4 | z2 B2 c2 B2 | (e8- | e6 dc | %30
w: Te|whit, te whoo, te whit, te|whoo, te whit, te whoo, te|whit. te|whoo,|te whoo,|te whit, te|whoo,||
 BAGF E3) F | G6 (GA) | B2!f! c2 B2 B2 | c8 | z4!mf! e4 | e6 e2 | e2 (dc) B2 A2 | G4 z4 | z8 | z8 | %40
w: * * * * * te|whit, te *|whit, te whit, te|whoo.|Thy|note that|forth so * free- ly|rolls,|||
 z8 | z8 | z4 z2!f! c2 | d2 (cB) =A4- | A2 B2 c2 c2 | =d2 f2 f3 e | d2 e2 f2 B2 | B6 B2 | %48
w: ||With|shrill com\- * mand|* The mouse con-|trols, with shrill com-|mand The mouse con-|trols, And|
"^dim." e6 (dc) | B2!p! A2 A2 G2 ||[M:3/2] x12 | %51
w: sings a *|dirge for dy- ing||
[M:3/2][Q:1/4=180][Q:1/4=180][Q:1/4=180][Q:1/4=180] A12 | z12 |!mf! A4 e4 d4 | c8 z4 | f4 e4 d4 | %56
w: souls,||and sings a|dirge,|and sings a|
 c8 z4 | A4 c4 B4 | A8 z4 | A4 c4 B4 | c6 e2 e3 d | %61
w: dirge|for dy- ing|souls,|for dy- ing|souls, for dy- ing|
[Q:1/4=120]!mp![Q:1/4=180][Q:1/4=120][Q:1/4=120][Q:1/4=120] c8 z4 |!p! c8 z4 |!pp! c8 z4 || %64
w: souls,|souls.|souls,|
[M:2/2][Q:1/4=120] c4 z4 | z2!mp! A2 d4 | z2 A2 d4 |[M:2/2] z4 z2"^cresc." B2 | e8 | z8 | %70
w: souls.|Te whit,|te whit,|te|whoo,||
 z2 B2 c2 B2 | e8- | e2 dc BAGF | E2!f!!f! A2 A2 G2 | A4 z2!mf! A2 | c4 z2 A2 | c4 z2 c2 | %77
w: te whit, te|whoo,||* te whit,~ te|whoo, te|whit, te|whit, te|
 e4 z2 c2 | e8- |"^dim. al fine" e8 | z2 c2 B2 c2 | B2 A2 A4- | A4 G4 | !fermata!A8 |] %84
w: whoo, te|whoo,||te whit, te|whoo, te whit,|* te|whoo.|
V:2
!mf! A8 | z4 z2 A2 | A2 A2 A4 | z8 | B8 | z8 |[M:2/2] e8 | z4 z2 e2 | e2 e2 e2 c2 | B2 A2 G4 | %10
w: Sweet,|sweet|Suf- folk owl,||sweet,||sweet,|sweet|Suf- folk owl, sweet|Suf- folk owl,|
 z2 G2 G2 A2 | A6 A2 | AAAA AA A2 | z2!f! =A2 A2 A2 | B2 B2 B3 B | B3 B BBBB | BB B2 G4 | z8 | z8 | %19
w: so trim- ly|dight With|fea- thers like a la- dy bright;|Sweet Suf- folk|owl, so trim- ly|dight With fea thers like a|la- dy bright, Thou,|||
 z2!pp! (BA) G2 F2 | G2 E2 G2 F2 | E4!mf! G4 | A3 A AAAA | AAAA A4 | z2 A2 d4 | z2 A2 d4 | %26
w: thou * sing'st a-|lone, sit- ting by|night, Te|whit, te whoo, te whit, te|whoo, te whit, te whoo,|te whit,|te whit,|
 z4 z2 B2 | e8 | z8 | z2 B2 c2 B2 | (e8- | e2 dc BAGF | G2)!f! A2 A2 G2 | A8 | z4!mf! c4 | c6 B2 | %36
w: te|whoo,||te whit, te|whoo,||* te whit, te|whoo.|Thy|note that|
 c2 A2 B2 c2 | B4 z4 | z8 | z8 | z8 | z8 | z4 z2!f! e2 | f6 (ed) | c2 B2 B2 =A2 | B2 B2 d4- | %46
w: forth so free- ly|rolls,|||||With|shrill com\- *|mand The mouse con-|trols, with shrill|
 d2 (cB) cd e2- | e2 =d2 e4- |"^dim." e2 (dc) B2 A2 | G2!p! A2 B2 B2 ||[M:3/2] x12 |[M:3/2] c8 z4 | %52
w: * com\- * mand The mouse|* con- trols,|* And * sings a|dirge for dy- ing||souls,|
!mf! A4 e4 d4 | c8 z4 | f4 e4 d4 | c8 z4 | A4 c4 B4 | A8 z4 |"^dim." A4 c4 B4 | A8 z4 | A4 c4 B4 | %61
w: and sings a|dirge,|and sings a|dirge|for dy- ing|souls,|for dy- ing|souls,|for dy- ing|
!mp! A8 z4 |!p! A8 z4 |!pp! A8 z4 ||[M:2/2] A4!mp! c4 | d4 z2 A2 | d4 z4 | %67
w: souls,|souls,|souls,|souls. Te|whit, te|whit,|
[M:2/2] z2"^cresc." B2 e4 | z2 B2 c2 B2 | e8- | (e6 dc | BA GF E3 F | G6) GA | B2!f! c2 B2 B2 | %74
w: te whoo,|te whit, te|whoo,|||* te *|whit, te whit, te|
 c2!mf! A2 c4 | z2 A2 c4 | z2 c2 e4 | z2 c2 e4 | z4 c4 |"^dim. al fine" B6 c2 | e8- | e8 | %82
w: whoo, te whit,|te whit,|te whoo,|te whoo,|te|whit, te|whoo,||
 e2 (dc) (BA) B2 | !fermata!c8 |] %84
w: * te\- * whit, * te|whoo.|
V:3
 z8 |!mf! E6 F2 | E2 F2 E4 | z8 | F6 G2 | F2 G2 F4 |[M:2/2] z8 | G6 E2 | E2 (EF) G2 A2 | %9
w: |Sweet, sweet|Suf- folk owl,||sweet, sweet|Suf- folk owl,||sweet, sweet|Suf- folk * owl, sweet|
 G2 E2 E4- | E4 E4 | F3 F F3 F | FFFF FF F2 | z2!f! F2 F3 C | =D2 D2 D3 D | =D3 D DDDD | %16
w: Suf- folk owl,|* so|trim- ly dight With|fea- thers like a la- dy bright;|Sweet Suf- folk|owl, so trim- ly|dight With fea- thers like a|
 =DD D2 E4 | z8 | z2"^dim."!mf! E2 E2 =D2 | E4 z4 | z2!pp! B,2 B,2 B,2 | B,4!mf! E4 | E3 E EEEE | %23
w: la- dy bright, Thou,||sit- ting by|night,|sit- ting by|night, Te|whit, te whoo, te whit, te|
 EEEE E2 E2 | F4 F4 | F8 | E2 E4 (DC) | B,2 B,2 E4- | E2 (EF) G2 A2 | G8 | z2 B,2 C2 B,2 | E8- | %32
w: whoo, te whit, te whoo, te|whit, te|whoo,|te whit, te *|whoo, te whit,|* te * whit, te|whoo,|te whit, te|whoo,|
 E2!f! E2 F2 E2 | E8 | z4!mf! A,4 | A6 G2 | A2 F2 G2 A2 | E4 C4 | C6 B,2 | C2 A,2 B,2 C2 | %40
w: * te whit, te|whoo.|Thy|note, that|forth so free- ly|rolls, thy|note, that|forth so free- ly|
"^cresc." (B,2 C2 B,2 C2 | B,2) (EF EF E>D | C6)!f! C2 | F2 (ED) C2 B,2 | C2 F2 F4- | F2 F2 F4- | %46
w: rolls, * * *|* rolls, * * * * *|* With|shrill com\- * mand The|mouse con- trols,|* with shrill|
 F2 C2 F2 G2 | F2 F2 G2 E2 |"^dim." E2 E2 E4- | E2!p! E2 E2 E2 ||[M:3/2] x12 |[M:3/2] E12 | %52
w: * com- mand The|mouse con- trols, And|sings a dirge|* for dy- ing||souls,|
!mf! E4 C4 B,4 | E6 C2 (F2 G2 | A6 G2) (F2 G2) | A8 z4 | F4 E4 (E3 D) | C4 A,4 B,4 | %58
w: and sings a|dirge for dy\- *|* * ing *|souls,|for dy- ing, *|for dy- ing|
"^dim." A,6 A,2 A,2 G,2 | A,4 E8 | E8 E4 |!mp! A8 z4 |!p! E8 z4 |!pp! E8 z4 ||[M:2/2] E4!mp! E4 | %65
w: souls, for dy- ing|souls, for|dy- ing|souls,|souls,|souls,|souls. Te|
 F4 F4 | F6"^cresc." F2 |[M:2/2] G2 E2 E3 B, | C2 B,2 E4- | E2 G2 G2 (EF) | G8 | z2 B,2 C2 B,2 | %72
w: whit, te|whoo, te|whit, te whoo, te|whit, te whoo,|* te whit, te *|whoo,|te whit, te|
 E8- | E2!f! E2 F2 E2 | E2!mf! C2 E2 E2 | E4 z2 C2 | E6 A2 | A2 A2 A2 A2 | E4 A4 | %79
w: whoo,|* te whit, te|whoo, te whit, te|whoo, te|whoo, te|whit, te whoo, te|whit, te|
"^dim. al fine" G6 E2 | E2 (CD) E2 (EF) | G4 E4 | E4 E4 | !fermata!E8 |] %84
w: whoo, te|whoo, te * whit, te *|whoo. te|whit, te|whoo.|
V:4
 z8 |!mf! c6 A2 | A2 (AB) c4 | z8 | =d6 B2 | B2 (Bc) =d4 |[M:2/2][K:treble-8] z8 | B6 c2 | %8
w: |Sweet, sweet|Suf- folk * owl,||sweet, sweet|Suf- folk * owl,||sweet, sweet|
 B2 c2 B2 (cd) | e2 c2 B4- | B4 E4 | A3 A A3 A | AFAA AA A2 | z2!f! F2 c2 F2 | F2 F2 F3 F | %15
w: Suf- folk owl, sweet *|Suf- folk owl,|* so|trim- ly dight With|fea- thers like a la- dy bright;|Sweet Suf- folk|owl, so trim- ly|
 F3 F FFFF | FF B2 B4 | z8 | z2"^dim."!mf! B2 B2 B2 | B4 z4 | z2!pp! e2 e2 =d2 | e4!mf! B4 | %22
w: dight With fea- thers like a|la- dy bright, Thou,||sit- ting by|night,|sit- ting by|night, Te|
 A3 A AAAA | AAAA A2 A2 | A8 | A2 d4 d2 | B4 G4 | G4 z2 B2 | c2 B2 e4- | e4 (E2 F2) | G4 (G3 A) | %31
w: whit,~ te whoo, te whit, te|whoo, te whit, te whoo, te|whit,|te whit, te|whoo, te|whoo, te|whit, te whoo,|* te *|whit, te *|
 B8- | B2!f! (AG) F2 B2 | A8 | z8 | z8 | z8 | z4!mf! e4 | e6 e2 | e2 (dc) B2 A2 | %40
w: whoo,|* te * whit, te|whoo.||||Thy|note, that|forth so * free- ly|
"^cresc." (GFEF GFEF | GFGF GFAG | A8) | z2!f! c2 f3 f | f2 d2 c2 c2 | B8 | z8 | z2 B2 e2 (dc) | %48
w: rolls, * * * * * * *|||With shrill com-|mand The mouse con-|trols,||And sings a *|
"^dim." B8- | B2!p! c2 B2 B2 ||[M:3/2] x12 |[M:3/2][K:treble-8] A12 | c4 A4 (F2 G2) | A8 z4 | %54
w: dirge|* for dy- ing||souls.|and sings a *|dirge,|
 c4 e4 B4 | c6 A2 (F2 G2) | A8 G4 | A12 | f4 e4 (e3 d) |"^dim." c4 A4 B4 | A6 A2 A2 G2 | %61
w: and sings a|dirge for dy\- *|* ing|souls,|for dy- ing, *|for dy- ing|souls, for dy- ing|
!mp! A8 z4 |!p! A8 z4 |!pp! A8 z4 ||[M:2/2] A4!mp! A4 | A8 | A2 d4"^cresc." d2 | %67
w: souls,|souls,|souls.|souls. Te|whit,|te whit, te|
[M:2/2][K:treble-8] e3 B B2 G2 | G4 z2 B2 | c2 B2 e4- | e4 (E2 F2) | G4 (G3 A) | B8- | %73
w: whoo, te whit, te|whoo, te|whit, te whoo,|* te *|whit, te *|whoo,|
 B2!f! (AG) F2 B2 | A8- | A2!mf! c2 e2 e2 | e2 A2 c4 | z2 A2 c2 c2 | B2 e2 e2 (cd) | %79
w: * te * whit, te|whoo,|* te whit, te|whoo, te whit,|te whit, te|whoo, te whit, te *|
"^dim. al fine" e6 c2 | B2 A2 G2 A2 | B4 c4 | B3 (A B4) | !fermata!A8 |] %84
w: whoo, te|whit, te whoo, te|whit, te|whit, te *|whoo.|
V:5
 z8 |!mf! A,,6 D,2 | C,2 D,2 A,,4 | z8 | B,,6 E,2 | =D,2 E,2 B,,4 |[M:2/2] z8 | E,6 A,2 | %8
w: |Sweet, sweet|Suf- folk owl,||sweet, sweet|Suf- folk owl,||sweet, sweet|
 G,2 A,2 E,2 A,,2 | E,2 A,2 E,4- | E,4 E,4 | D,3 D, D,3 D, | D,D,D,D, D,D,"^\" D,2 | %13
w: Suf- folk owl, sweet|Suf- folk owl,|* so|trim- ly dight With|fea- thers like a la- dy bright;|
 z2!f! F,2 F,2 F,2 | B,,2 B,,2 B,,3 B,, | B,,3 B,, B,,B,,B,,B,, | B,,B,, B,,2 E,4 | z8 | %18
w: Sweet Suf- folk|owl, so trim- ly|dight With fea- thers like a|la- dy bright, Thou,||
 z2!mf! E,2 E,2 B,,2 | E,4 z4 | z2!pp! E,2 E,2 B,2 | E,4!mf! E,4 | A,,3 A,, A,,A,,A,,A,, | %23
w: sit- ting by|night,|sit- ting by|night, Te|whit, te whoo, te whit, te|
 A,,A,,A,,A,, A,,2 A,,2 | D,4 D,4 | D,6 B,,2 | E,4 E,4 | E,8 | E,8 | E,8 | E,8 | E,8- | %32
w: whoo, te whit, te whoo, te|whit, te|whoo, te|whit, te|whoo,|te|whit,|te|whoo,|
 E,2!f! C,2 D,2 E,2 | A,,8 | z8 | z8 | z8 | z4!mf! A,,4 | A,6 G,2 | A,2 F,2 G,2 A,2 | %40
w: * te whit, te|whoo.||||Thy|note, that|forth so free- ly|
"^cresc." (E,D,C,D, E,D,C,D, | E,D,E,D, E,D,C,B,, | A,,6)!f! (A,G,) | F,2 F,2 F,4- | %44
w: rolls, * * * * * * *||* With *|shrill com- mand|
 F,2 B,,2 F,2 F,2 | B,,2 B,,2 B,4- | B,2 (A,G,) F,2 E,2 | B,2 B,2 E,2 E,2 |"^dim." E,2 E,2 E,4- | %49
w: * The mouse con-|trols, with shrill|* com\- * mand The|mouse con- trols, And|sings a dirge|
 E,2!p! A,,2 E,2 E,2 ||[M:3/2] x12 |[M:3/2] A,,12 |!mf! A,,4 A,,4 B,,4 | A,,8 B,,4 | A,,8 B,,4 | %55
w: * for dy- ing||souls,|and sings a|dirge for|dy- ing|
 A,,8 B,,4 | A,,8 E,4 | A,,8 E,4 |"^dim." A,,8 E,4 | A,,8 E,4 | A,,4 E,8 |!mp! A,,8 z4 | %62
w: souls, for|dy- ing|souls., for|dy- ing|souls, for|dy- ing|souls,|
!p! A,,8 z4 |!pp! A,,8 z4 ||[M:2/2] A,,4!mp! A,,4 | D,4 D,4 | D,6"^cresc." B,,2 |[M:2/2] E,4 E,4 | %68
w: souls,|souls.|souls. Te|whit, te|whoo, te|whit, te|
 E,8 | E,8 | E,8 | E,8 | E,8- | E,2!f! C,2 D,2 E,2 | A,,3!mf! A,, A,,2 A,,2 | A,6 A,2 | %76
w: whoo,|te|whit,|te|whoo,|* te whit, te|whoo, te whit, te|whoo, te|
 A,2 A,2 A,2 A,2 | A,6 A,2 | G,4 A,4 |"^dim. al fine" E,6 A,2 | G,2 A,2 E,2 A,2 |"^-_" G,4 A,4 | %82
w: whit, te whoo, te|whit, te|whoo, te|whoo, te|whit, te whoo, te|whit, te|
 E,4 E,4 | !fermata!A,,8 |] %84
w: whoo, te|whoo.|

